public/svg/prometheus.svg

<svg width="24" height="24" viewBox="0 0 24 24" fill="none" xmlns="http://www.w3.org/2000/svg">
<g clip-path="url(#clip0)">
<path d="M12 0C8.8174 0 5.76516 1.26428 3.51472 3.51472C1.26428 5.76516 0 8.8174 0 12C0 15.1826 1.26428 18.2348 3.51472 20.4853C5.76516 22.7357 8.8174 24 12 24C15.1826 24 18.2348 22.7357 20.4853 20.4853C22.7357 18.2348 24 15.1826 24 12C24 8.8174 22.7357 5.76516 20.4853 3.51472C18.2348 1.26428 15.1826 0 12 0V0ZM12 22.458C10.116 22.458 8.586 21.198 8.586 19.644H15.414C15.414 21.204 13.884 22.464 12 22.464V22.458ZM17.64 18.714H6.36V16.674H17.64V18.714ZM17.598 15.618H6.39L6.282 15.486C5.124 14.088 4.854 13.356 4.59 12.606C4.59 12.582 5.988 12.894 6.99 13.116C6.99 13.116 7.5 13.236 8.25 13.374C7.52347 12.5373 7.11738 11.47 7.104 10.362C7.104 7.962 8.946 5.856 8.28 4.158C8.928 4.206 9.618 5.526 9.666 7.578C10.356 6.624 10.644 4.89 10.644 3.822C10.644 2.724 11.37 1.44 12.102 1.398C11.448 2.466 12.264 3.378 12.99 5.652C13.266 6.504 13.23 7.938 13.44 8.85C13.512 6.96 13.836 4.2 15.036 3.246C14.508 4.446 15.114 5.946 15.528 6.666C16.2 7.836 16.608 8.718 16.608 10.386C16.608 11.484 16.212 12.546 15.498 13.386C15.9463 13.3009 16.3924 13.2048 16.836 13.098L19.41 12.6C19.41 12.6 19.038 14.136 17.598 15.618Z" fill="#E3703B"/>
</g>
<defs>
<clipPath id="clip0">
<rect width="24" height="24" fill="white"/>
</clipPath>
</defs>
</svg>

<svg xmlns="http://www.w3.org/2000/svg" width="24" height="24" fill="none" xmlns:v="https://vecta.io/nano"><g clip-path="url(#A)"><path d="M12 0A12 12 0 0 0 0 12a12 12 0 0 0 12 12 12 12 0 0 0 12-12A12 12 0 0 0 12 0h0zm0 22.458c-1.884 0-3.414-1.26-3.414-2.814h6.828c0 1.56-1.53 2.82-3.414 2.82v-.006zm5.64-3.744H6.36v-2.04h11.28v2.04zm-.042-3.096H6.39l-.108-.132c-1.158-1.398-1.428-2.13-1.692-2.88 0-.024 1.398.288 2.4.51l1.26.258a4.68 4.68 0 0 1-1.146-3.012c0-2.4 1.842-4.506 1.176-6.204.648.048 1.338 1.368 1.386 3.42.69-.954.978-2.688.978-3.756 0-1.098.726-2.382 1.458-2.424-.654 1.068.162 1.98.888 4.254.276.852.24 2.286.45 3.198.072-1.89.396-4.65 1.596-5.604-.528 1.2.078 2.7.492 3.42.672 1.17 1.08 2.052 1.08 3.72 0 1.098-.396 2.16-1.11 3l1.338-.288 2.574-.498s-.372 1.536-1.812 3.018z" fill="#e3703b"/></g><defs><clipPath id="A"><path fill="#fff" d="M0 0h24v24H0z"/></clipPath></defs></svg>
